static/inkind_logos/dialpad.svg

<svg width="217" height="46" viewBox="0 0 217 46" fill="none" xmlns="http://www.w3.org/2000/svg">
<rect width="216.024" height="45.9009" fill="black" fill-opacity="0"/>
<path d="M31.505 26.6009C29.805 26.6009 28.305 25.2009 28.305 23.5009V15.2009C28.305 13.5009 29.705 12.0009 31.505 12.0009C33.305 12.0009 34.705 13.4009 34.705 15.2009V23.5009C34.705 25.1009 33.305 26.6009 31.505 26.6009Z" fill="#203476"/>
<path d="M3.10505 10.3009C4.80505 10.3009 6.30504 11.7009 6.30504 13.5009V21.8009C6.40504 23.5009 5.10504 25.0009 3.30504 25.1009C1.60504 25.2009 0.105041 23.9009 0.00504149 22.1009C0.00504149 22.0009 0.00504149 21.9009 0.00504149 21.7009V13.5009C-0.0949585 11.7009 1.30505 10.3009 3.10505 10.3009Z" fill="#203476"/>
<path d="M12.605 31.0009C14.305 31.0009 15.705 29.6009 15.705 27.9009V3.70093C15.705 2.00093 14.305 0.600922 12.505 0.600922C10.805 0.600922 9.40504 2.00093 9.40504 3.70093V27.9009C9.40504 29.6009 10.905 31.0009 12.605 31.0009Z" fill="#203476"/>
<path d="M22.105 5.90091C20.405 5.90091 19.005 7.30092 19.005 9.00092V33.2009C19.005 34.9009 20.405 36.3009 22.105 36.3009C23.805 36.3009 25.305 34.9009 25.305 33.2009V9.00092C25.305 7.30092 23.805 5.90091 22.105 5.90091Z" fill="#203476"/>
<path d="M82.405 10.5009H85.505C86.305 10.5009 86.905 11.1009 86.905 11.9009V34.5009C86.905 35.3009 86.305 35.9009 85.505 35.9009H82.405C81.605 35.9009 81.005 35.3009 81.005 34.5009V11.9009C81.005 11.1009 81.605 10.5009 82.405 10.5009Z" fill="#203476"/>
<path d="M59.605 0.000916091H48.805C48.005 0.000916091 47.405 0.60091 47.405 1.40091V34.5009C47.405 35.3009 48.005 35.9009 48.805 35.9009H59.605C69.505 35.9009 77.605 27.8009 77.605 17.9009C77.605 8.00091 69.505 -0.0990839 59.605 0.000916091ZM59.605 29.7009H53.705V6.3009H59.605C66.105 6.3009 71.305 11.5009 71.305 18.0009C71.305 24.5009 66.105 29.7009 59.605 29.7009Z" fill="#203476"/>
<path d="M115.505 10.5009H112.105C111.105 10.5009 110.305 11.3009 110.305 12.3009V12.9009C108.105 11.3009 105.505 10.4009 102.805 10.4009C95.6051 10.4009 89.8051 16.2009 89.8051 23.4009C89.8051 30.6009 95.6051 36.4009 102.805 36.4009C105.505 36.4009 108.105 35.5009 110.305 33.9009V35.2009C110.305 35.6009 110.605 35.9009 111.005 35.9009H115.505C115.905 35.9009 116.205 35.6009 116.205 35.2009V11.1009C116.305 10.8009 115.905 10.5009 115.505 10.5009ZM103.205 30.7009C99.205 30.7009 95.905 27.4009 95.905 23.4009C95.905 19.4009 99.205 16.1009 103.205 16.1009C107.205 16.1009 110.505 19.4009 110.505 23.4009C110.505 27.4009 107.205 30.7009 103.205 30.7009Z" fill="#203476"/>
<path d="M83.905 7.60092C85.8933 7.60092 87.505 5.98914 87.505 4.00092C87.505 2.01269 85.8933 0.400909 83.905 0.400909C81.9168 0.400909 80.3051 2.01269 80.3051 4.00092C80.3051 5.98914 81.9168 7.60092 83.905 7.60092Z" fill="#203476"/>
<path d="M215.405 0.400909H211.905C210.905 0.400909 210.105 1.20093 210.105 2.20093V12.9009C207.905 11.3009 205.305 10.4009 202.605 10.4009C195.405 10.4009 189.605 16.2009 189.605 23.4009C189.605 30.6009 195.405 36.4009 202.605 36.4009C205.305 36.4009 207.905 35.5009 210.105 33.9009V35.2009C210.105 35.6009 210.405 35.9009 210.805 35.9009H215.305C215.705 35.9009 216.005 35.6009 216.005 35.2009V1.10092C216.105 0.700922 215.805 0.400909 215.405 0.400909ZM203.005 30.7009C199.005 30.7009 195.705 27.4009 195.705 23.4009C195.705 19.4009 199.005 16.1009 203.005 16.1009C207.005 16.1009 210.305 19.4009 210.305 23.4009C210.305 27.4009 207.005 30.7009 203.005 30.7009Z" fill="#203476"/>
<path d="M186.205 10.5009H182.705C181.705 10.5009 180.905 11.3009 180.905 12.3009V12.9009C178.705 11.3009 176.105 10.4009 173.405 10.4009C166.205 10.4009 160.405 16.2009 160.405 23.4009C160.405 30.6009 166.205 36.4009 173.405 36.4009C176.105 36.4009 178.705 35.5009 180.905 33.9009V35.2009C180.905 35.6009 181.205 35.9009 181.605 35.9009H186.105C186.505 35.9009 186.805 35.6009 186.805 35.2009V11.1009C186.905 10.8009 186.605 10.5009 186.205 10.5009ZM173.805 30.7009C169.805 30.7009 166.505 27.4009 166.505 23.4009C166.505 19.4009 169.805 16.1009 173.805 16.1009C177.805 16.1009 181.105 19.4009 181.105 23.4009C181.105 27.4009 177.905 30.7009 173.805 30.7009Z" fill="#203476"/>
<path d="M126.105 0.400909H122.605C121.605 0.400909 120.805 1.20093 120.805 2.20093V35.2009C120.805 35.6009 121.105 35.9009 121.505 35.9009H126.005C126.405 35.9009 126.705 35.6009 126.705 35.2009V1.10092C126.805 0.700922 126.505 0.400909 126.105 0.400909Z" fill="#203476"/>
<path d="M145.205 10.4009C142.505 10.4009 139.905 11.3009 137.705 12.9009V12.2009C137.705 11.2009 136.905 10.4009 135.905 10.4009H132.505C132.105 10.4009 131.805 10.7009 131.805 11.1009V45.2009C131.805 45.6009 132.105 45.9009 132.505 45.9009H135.905C136.905 45.9009 137.705 45.1009 137.705 44.1009V33.8009C139.905 35.4009 142.505 36.3009 145.205 36.3009C152.405 36.3009 158.205 30.5009 158.205 23.3009C158.205 16.1009 152.405 10.4009 145.205 10.4009ZM144.805 30.7009C140.805 30.7009 137.505 27.4009 137.505 23.4009C137.505 19.4009 140.805 16.1009 144.805 16.1009C148.805 16.1009 152.105 19.4009 152.105 23.4009C152.105 27.4009 148.805 30.7009 144.805 30.7009Z" fill="#203476"/>
</svg>

<svg width="217" height="46" fill="none" xmlns="http://www.w3.org/2000/svg"><path fill="none" d="M0 0h216.024v45.901H0z"/><path d="M31.505 26.6c-1.7 0-3.2-1.4-3.2-3.1v-8.3c0-1.7 1.4-3.2 3.2-3.2 1.8 0 3.2 1.4 3.2 3.2v8.3c0 1.6-1.4 3.1-3.2 3.1zM3.105 10.3c1.7 0 3.2 1.4 3.2 3.2v8.3c.1 1.7-1.2 3.2-3 3.3-1.7.1-3.2-1.2-3.3-3v-8.6c-.1-1.8 1.3-3.2 3.1-3.2zM12.605 31c1.7 0 3.1-1.4 3.1-3.1V3.7c0-1.7-1.4-3.1-3.2-3.1-1.7 0-3.1 1.4-3.1 3.1v24.2c0 1.7 1.5 3.1 3.2 3.1zM22.105 5.9c-1.7 0-3.1 1.4-3.1 3.1v24.2c0 1.7 1.4 3.1 3.1 3.1 1.7 0 3.2-1.4 3.2-3.1V9c0-1.7-1.5-3.1-3.2-3.1zM82.405 10.5h3.1c.8 0 1.4.6 1.4 1.4v22.6c0 .8-.6 1.4-1.4 1.4h-3.1c-.8 0-1.4-.6-1.4-1.4V11.9c0-.8.6-1.4 1.4-1.4zM59.605 0h-10.8c-.8 0-1.4.6-1.4 1.4v33.1c0 .8.6 1.4 1.4 1.4h10.8c9.9 0 18-8.1 18-18s-8.1-18-18-17.9zm0 29.7h-5.9V6.3h5.9c6.5 0 11.7 5.2 11.7 11.7 0 6.5-5.2 11.7-11.7 11.7zM115.505 10.5h-3.4c-1 0-1.8.8-1.8 1.8v.6c-2.2-1.6-4.8-2.5-7.5-2.5-7.2 0-13 5.8-13 13s5.8 13 13 13c2.7 0 5.3-.9 7.5-2.5v1.3c0 .4.3.7.7.7h4.5c.4 0 .7-.3.7-.7V11.1c.1-.3-.3-.6-.7-.6zm-12.3 20.2c-4 0-7.3-3.3-7.3-7.3s3.3-7.3 7.3-7.3 7.3 3.3 7.3 7.3-3.3 7.3-7.3 7.3zM83.905 7.6a3.6 3.6 0 1 0 0-7.199 3.6 3.6 0 0 0 0 7.2zM215.405.4h-3.5c-1 0-1.8.8-1.8 1.8v10.7c-2.2-1.6-4.8-2.5-7.5-2.5-7.2 0-13 5.8-13 13s5.8 13 13 13c2.7 0 5.3-.9 7.5-2.5v1.3c0 .4.3.7.7.7h4.5c.4 0 .7-.3.7-.7V1.1c.1-.4-.2-.7-.6-.7zm-12.4 30.3c-4 0-7.3-3.3-7.3-7.3s3.3-7.3 7.3-7.3 7.3 3.3 7.3 7.3-3.3 7.3-7.3 7.3zM186.205 10.5h-3.5c-1 0-1.8.8-1.8 1.8v.6c-2.2-1.6-4.8-2.5-7.5-2.5-7.2 0-13 5.8-13 13s5.8 13 13 13c2.7 0 5.3-.9 7.5-2.5v1.3c0 .4.3.7.7.7h4.5c.4 0 .7-.3.7-.7V11.1c.1-.3-.2-.6-.6-.6zm-12.4 20.2c-4 0-7.3-3.3-7.3-7.3s3.3-7.3 7.3-7.3 7.3 3.3 7.3 7.3-3.2 7.3-7.3 7.3zM126.105.4h-3.5c-1 0-1.8.8-1.8 1.8v33c0 .4.3.7.7.7h4.5c.4 0 .7-.3.7-.7V1.1c.1-.4-.2-.7-.6-.7zM145.205 10.4c-2.7 0-5.3.9-7.5 2.5v-.7c0-1-.8-1.8-1.8-1.8h-3.4c-.4 0-.7.3-.7.7v34.1c0 .4.3.7.7.7h3.4c1 0 1.8-.8 1.8-1.8V33.8c2.2 1.6 4.8 2.5 7.5 2.5 7.2 0 13-5.8 13-13s-5.8-12.9-13-12.9zm-.4 20.3c-4 0-7.3-3.3-7.3-7.3s3.3-7.3 7.3-7.3 7.3 3.3 7.3 7.3-3.3 7.3-7.3 7.3z" fill="#203476"/></svg>
